src/components/class-icon/images/Wizard.svg

<?xml version="1.0" encoding="UTF-8"?>
<svg width="60px" height="100px" viewBox="0 0 60 100" version="1.1" xmlns="http://www.w3.org/2000/svg" xmlns:xlink="http://www.w3.org/1999/xlink">
    <!-- Generator: Sketch 53.2 (72643) - https://sketchapp.com -->
    <title>ClassIcon/Wizard</title>
    <desc>Created with Sketch.</desc>
    <g id="ClassIcon/Wizard" stroke="none" stroke-width="1" fill="none" fill-rule="evenodd">
        <g fill="#00040C" fill-rule="nonzero" id="Path">
            <path d="M18.3762376,96.7128713 L18.6435644,97.019802 C18.3639723,97.2261127 17.9825624,97.2261127 17.7029703,97.019802 C15.9306931,96.1881188 14.1683168,95.3465347 12.3762376,94.5643564 C8.51485149,92.8514851 4.63366337,91.1782178 0.752475248,89.4851485 L0,89.1782178 L0.287128713,88.8316832 C0.772277228,88.2772277 1.27722772,87.7326733 1.75247525,87.1881188 C2.05940594,86.8514851 2.38613861,86.5247525 2.74257426,86.1980198 C3.37658762,85.6310978 3.88282793,84.9358611 4.22772277,84.1584158 C4.95049505,82.4653465 5.7029703,80.7821782 6.41584158,79.0891089 C6.49257004,78.8035359 6.74431374,78.5997434 7.03960396,78.5841584 C7.40636431,78.5612521 7.7706245,78.5082688 8.12871287,78.4257426 C9.81503874,78.0380348 11.2391048,76.915493 12.009901,75.3663366 C12.3267327,74.7722772 12.6039604,74.1584158 12.9207921,73.4950495 L13.5643564,73.6633663 C15.2693317,74.2649768 17.0258513,74.709078 18.8118812,74.990099 C19.0271342,75.0441381 19.2531076,74.9569204 19.3762376,74.7722772 C19.7044842,74.3326914 20.1459319,73.990484 20.6534653,73.7821782 C20.8408787,73.7070802 21.0173702,73.6071793 21.1782178,73.4851485 C21.3069307,73.3762376 21.4653465,73.1782178 21.4455446,73.049505 C21.3863386,72.3662518 21.6328839,71.6918777 22.1188119,71.2079208 C22.4258504,70.8232796 22.7133426,70.4234342 22.980198,70.009901 C23.1273479,69.7752732 23.3772803,69.6245786 23.6534653,69.6039604 C24.1980198,69.5247525 24.7425743,69.4554455 25.2871287,69.3564356 C25.6640469,69.2869371 26.0324704,69.1774058 26.3861386,69.029703 C28.1881188,68.2376238 29.990099,67.4059406 31.7920792,66.6039604 C32.1471303,66.4515769 32.4426578,66.1873406 32.6336634,65.8514851 C33.3861386,64.6039604 34.1386139,63.3465347 34.960396,62.1287129 C35.6336634,61.1386139 36.4158416,60.2079208 37.1188119,59.2277228 C37.7029703,58.4059406 38.2178218,57.5346535 38.8019802,56.7128713 C39.3861386,55.8910891 40.0693069,55.009901 40.7029703,54.1683168 C40.8811881,53.9405941 41.0990099,53.7326733 41.2574257,53.4851485 C41.6016987,52.9601417 42.1266073,52.579671 42.7326733,52.4158416 C43.2673267,52.2475248 43.7920792,52.019802 44.3267327,51.8217822 C44.8613861,51.6237624 44.7425743,51.7029703 45.0594059,52.019802 C45.4607628,52.4013669 45.5118862,53.0233686 45.1782178,53.4653465 C44.4851485,54.7722772 43.8514851,56.1188119 43.2475248,57.4257426 C43.0193449,58.0063648 42.8307937,58.6017896 42.6831683,59.2079208 C42.5707802,59.5575825 42.5042184,59.9203444 42.4851485,60.2871287 C42.5693387,60.2095523 42.6486953,60.1268891 42.7227723,60.039604 C43.1980198,59.3960396 43.7128713,58.7524752 44.1386139,58.0594059 C44.3708742,57.7300904 44.5698698,57.3785317 44.7326733,57.009901 C45.3168317,55.7029703 45.8613861,54.3861386 46.4455446,53.049505 C46.5707018,52.7829366 46.5707018,52.4744891 46.4455446,52.2079208 C46.2068434,51.6846153 46.1750086,51.0903668 46.3564356,50.5445545 C46.7722772,49.4653465 47.1386139,48.3663366 47.4653465,47.2673267 C47.7493991,46.5333117 48.1360853,45.8432767 48.6138614,45.2178218 C49.1386139,44.3762376 49.7425743,43.5841584 50.2376238,42.7326733 C50.9678999,41.5140528 51.9379891,40.4563861 53.0891089,39.6237624 L53.980198,40.4059406 C53.6667006,41.0816222 53.4372647,41.7932059 53.2970297,42.5247525 L54.1485149,41.2079208 C54.6435644,40.4356436 55.1386139,39.6237624 55.6534653,38.9009901 C56.1248304,38.4291565 56.6385396,38.0016178 57.1881188,37.6237624 C57.3002169,37.5672758 57.4324564,37.5672758 57.5445545,37.6237624 C57.8811881,37.7524752 58.2079208,37.9108911 58.6039604,38.0891089 C58.0693069,39.3762376 57.3465347,40.5445545 56.7722772,41.7821782 C56.1980198,43.019802 55.5940594,44.2079208 55.0792079,45.5445545 C55.2079208,45.4455446 55.3663366,45.3663366 55.4851485,45.2574257 C56.2772277,44.4653465 57.0891089,43.6930693 57.8415842,42.8712871 C58.2376238,42.4356436 58.6138614,42.7128713 59,42.7821782 C59.3861386,42.8514851 59.3366337,43.1386139 59.3762376,43.4257426 C59.4532603,43.8960618 59.3469484,44.3780087 59.0792079,44.7722772 C57.8795864,46.5497172 56.9113901,48.4728014 56.1980198,50.4950495 C55.5841584,52.2574257 55,54.039604 54.2178218,55.7425743 C53.2277228,58.039604 52.029703,60.2871287 50.9207921,62.5544554 C50.2277228,63.960396 49.4851485,65.3564356 48.8019802,66.7821782 C48.5690992,67.3175528 48.3900013,67.8747464 48.2673267,68.4455446 C48.2019183,68.729705 48.0537667,68.9881088 47.8415842,69.1881188 C47.4554455,69.5643564 47.0891089,69.950495 46.6930693,70.2970297 C46.5153616,70.4525431 46.3058725,70.5674243 46.0792079,70.6336634 C45.5247525,70.7920792 44.950495,70.9405941 44.3762376,71.0594059 C43.6261371,71.2138418 42.9068193,71.4915319 42.2475248,71.8811881 C40.5940594,72.8712871 38.9207921,73.8019802 37.2970297,74.8514851 C36.602236,75.269193 35.9402565,75.7391984 35.3168317,76.2574257 C34.51337,76.8976678 33.6233608,77.4210065 32.6732673,77.8118812 L32.1485149,78.0693069 L32.3861386,78.6039604 C32.049505,78.9306931 31.3960396,78.6831683 31.2772277,79.2970297 C31.7326733,79.3663366 31.960396,80.039604 32.6435644,79.7128713 C32.6509268,79.8051339 32.6509268,79.8978364 32.6435644,79.990099 C32.4768771,80.3964426 32.5978052,80.8640314 32.9405941,81.1386139 C33.1782178,81.3663366 33.3069307,81.6039604 33,81.9108911 C33,81.8316832 33,81.7722772 33,81.7128713 C33,81.4455446 32.7524752,81.3564356 32.5346535,81.3168317 C32.3168317,81.2772277 32.1980198,81.5148515 32.1485149,81.7029703 C31.7488078,82.9917157 31.2625538,84.2520068 30.6930693,85.4752475 C30.5543978,85.798191 30.332274,86.0784088 30.049505,86.2871287 C29.2680592,86.8694079 28.6283536,87.6208082 28.1782178,88.4851485 C27.2210788,90.1002301 26.5510982,91.8689789 26.1980198,93.7128713 C26.0665896,94.4824615 25.9839166,95.2595873 25.950495,96.039604 C25.9741782,96.6451721 26.0470251,97.2478149 26.1683168,97.8415842 C26.2475248,98.3267327 26.1683168,98.5643564 25.6732673,98.6831683 C25.1782178,98.8019802 24.6831683,98.9009901 24.1287129,98.990099 C23.9683305,99.019472 23.8039468,99.019472 23.6435644,98.990099 C22.1510127,98.5446795 20.71808,97.9196416 19.3762376,97.1287129 C19.0792079,96.950495 18.7524752,96.8217822 18.4455446,96.6732673 L18.3762376,96.7128713 Z"></path>
            <path d="M33.5445545,50.009901 C33.6748858,50.188508 33.7907647,50.3772251 33.8910891,50.5742574 C33.950495,50.7029703 34.2574257,50.9009901 33.8910891,51 L33.990099,51.3564356 C33.6138614,51.6435644 33.6138614,51.6435644 33.990099,52.3465347 L33.6930693,52.8613861 C33.2163787,52.6240329 32.8228367,52.2477515 32.5643564,51.7821782 C32.2278007,51.2087411 32.0500897,50.5559948 32.049505,49.8910891 C32.1163671,47.9310125 32.4494515,45.9891303 33.039604,44.1188119 C33.2547688,43.5322472 33.5733383,42.9890025 33.980198,42.5148515 C34.2948357,42.0526174 34.5198585,41.5354008 34.6435644,40.990099 C34.9258971,39.5894943 35.0422106,38.1605002 34.990099,36.7326733 C35.0130196,36.2356877 34.9073009,35.741197 34.6831683,35.2970297 C34.2570399,34.3334767 33.5714533,33.5073449 32.7029703,32.9108911 C32.2079208,32.5940594 31.7821782,32.1782178 31.2871287,31.8613861 C30.7920792,31.5445545 30.2970297,31.3267327 29.8019802,31.039604 C29.5537224,30.9264095 29.3261573,30.7724684 29.1287129,30.5841584 C28.6969626,30.1319792 28.1783468,29.7716423 27.6039604,29.5247525 L26.3564356,28.950495 C25.600554,28.6005364 24.993523,27.9935054 24.6435644,27.2376238 C24.3267327,26.5940594 23.980198,25.970297 23.7128713,25.3069307 C23.5301411,24.8862021 23.419681,24.4376669 23.3861386,23.980198 C23.3069307,22.4455446 23.2178218,20.9108911 23.2673267,19.3762376 C23.2827033,17.6366424 23.8746689,15.9512817 24.950495,14.5841584 C25.3069194,14.0069074 25.7628118,13.4973806 26.2970297,13.0792079 C26.5346535,12.9405941 26.7623762,12.7920792 26.990099,12.6435644 C27.3402091,12.453988 27.6717033,12.2318869 27.980198,11.980198 C28.3338185,11.6742275 28.7491703,11.4479789 29.1980198,11.3168317 C30.535444,10.8529775 31.9408574,10.6153958 33.3564356,10.6138614 C34.2673267,10.6138614 35.1881188,10.6138614 36.0990099,10.6831683 C36.7286673,10.7139588 37.3379978,10.9159279 37.8613861,11.2673267 C38.5544554,11.7326733 39.2376238,12.2574257 39.9108911,12.7326733 C40.4019279,13.0986799 40.7739245,13.6015643 40.980198,14.1782178 L41.8613861,16.7623762 C41.922728,16.8942013 41.9756397,17.0297875 42.019802,17.1683168 C42.1093326,17.4603638 42.1560234,17.7638541 42.1584158,18.0693069 C42.1584158,18.6534653 42.009901,19.2277228 41.950495,19.8118812 C41.8853623,20.7955902 41.6298063,21.7572878 41.1980198,22.6435644 C40.960396,23.0990099 40.6633663,23.5148515 40.3861386,23.9405941 C40.3498881,23.9843909 40.3168012,24.0307125 40.2871287,24.0792079 C39.858216,24.8638923 39.1521779,25.4604945 38.3069307,25.7524752 C38.2277228,25.8019802 38.1188119,25.8613861 38.049505,25.8415842 C37.6930693,25.7425743 37.4653465,25.980198 37.1980198,26.1287129 C36.9306931,26.2772277 36.6831683,26.4851485 36.4455446,26.1287129 C36.4455446,26.0792079 36.2772277,26.1287129 36.1881188,26.1287129 L35.5841584,26.1287129 C34.2700636,26.1970876 32.991071,25.6912713 32.0792079,24.7425743 C31.9320483,24.5789495 31.7695943,24.429757 31.5940594,24.2970297 C30.9836712,23.8189217 30.6202139,23.092007 30.6039604,22.3168317 C30.3787266,20.6636178 31.0500726,19.0154259 32.3663366,17.990099 C32.6440483,17.7583131 32.9947093,17.6320752 33.3564356,17.6336634 C33.7967836,17.6251986 34.237109,17.6516843 34.6732673,17.7128713 C35.1007577,17.7927134 35.4261049,18.1421605 35.4752475,18.5742574 C35.6039287,19.0743632 35.6039287,19.5989041 35.4752475,20.0990099 C35.4084223,20.2546357 35.3219076,20.4010453 35.2178218,20.5346535 C34.956467,20.0888407 34.5232246,19.7701747 34.019802,19.6534653 C33.7128713,19.5841584 33.3663366,19.3861386 33.0891089,19.7029703 C32.8118812,20.019802 32.1881188,20.3861386 32.3366337,21.0693069 C32.3566124,21.3626966 32.3566124,21.6571054 32.3366337,21.950495 C32.3975131,22.2388982 32.573707,22.4898504 32.8242901,22.6450624 C33.0748733,22.8002743 33.3780376,22.846238 33.6633663,22.7722772 C33.7467808,22.7436114 33.8373776,22.7436114 33.9207921,22.7722772 C34.3578057,22.8479608 34.8075757,22.7747425 35.1980198,22.5643564 L37.1782178,21.8118812 C37.2239229,21.7836556 37.27417,21.7635568 37.3267327,21.7524752 C37.950495,21.8019802 38.1980198,21.3465347 38.4059406,20.9009901 C38.5680364,20.5558442 38.6621589,20.1827155 38.6831683,19.8019802 C38.7227639,19.1623283 38.7227639,18.52084 38.6831683,17.8811881 C38.773183,16.6362491 37.9257919,15.5176928 36.7029703,15.2673267 C36.3213773,15.1421463 35.9255091,15.0656339 35.5247525,15.039604 C34.4455446,15.039604 33.3663366,15.039604 32.2772277,15.039604 C30.8558984,15.076118 29.4982464,15.6368106 28.4653465,16.6138614 C28.0808275,16.8474184 27.7768327,17.1928671 27.5940594,17.6039604 C27.6029026,17.6192773 27.6029026,17.6381485 27.5940594,17.6534653 C26.8852316,18.3919057 26.6214054,19.4509794 26.9009901,20.4356436 C26.950495,20.8415842 27.049505,21.2277228 27.0693069,21.6336634 C27.1960944,22.5995149 27.4149113,23.5510366 27.7227723,24.4752475 C27.9505624,25.2314737 28.3427641,25.92797 28.8712871,26.5148515 C29.2726737,27.0383254 29.7658311,27.4845153 30.3267327,27.8316832 C31.1554644,28.3000331 31.9585887,28.812314 32.7326733,29.3663366 C33.4607813,29.8343972 34.1092526,30.4160157 34.6534653,31.0891089 C35.0693069,31.6435644 35.5544554,32.1386139 36.009901,32.6732673 C36.119114,32.7942152 36.2092576,32.9311001 36.2772277,33.0792079 C36.8236955,34.1963112 37.1593476,35.4046587 37.2673267,36.6435644 C37.2673267,38.0693069 37.3366337,39.5049505 37.3366337,40.9306931 C37.3366337,41.4158416 37.1584158,41.9207921 37.1188119,42.3960396 C37.0025599,43.1305748 36.7326569,43.8323227 36.3267327,44.4554455 C36.2112624,44.6208898 36.0785005,44.773566 35.9306931,44.9108911 C35.2376238,45.7425743 34.5445545,46.5643564 33.8712871,47.4158416 C33.4680515,47.7496217 33.3943032,48.3396082 33.7029703,48.7623762 C33.8104416,48.9731871 33.8807779,49.2009427 33.9108911,49.4356436 C34.019802,49.7821782 33.950495,49.8712871 33.5445545,50.009901 Z"></path>
            <path d="M35.2772277,60.5049505 C34.1881188,62.1188119 33.1089109,63.7227723 32,65.3168317 C31.8674825,65.5105302 31.6818186,65.6618119 31.4653465,65.7524752 C30.5544554,66.1683168 29.6138614,66.5346535 28.7029703,66.970297 C27.9955269,67.3057277 27.3138069,67.6929182 26.6633663,68.1287129 C26.0931755,68.5295436 25.440068,68.7968778 24.7524752,68.9108911 C24.1782178,68.980198 23.6138614,69.1287129 22.960396,69.2574257 C23.039604,69.0594059 23.0792079,68.9306931 23.1386139,68.8019802 C23.4752475,68.1386139 23.8118812,67.4653465 24.1287129,66.8217822 C24.221461,66.6453976 24.3417888,66.4849606 24.4851485,66.3465347 C25.2772277,65.5841584 26.0693069,64.8217822 26.8712871,64.0792079 C27.0452755,63.9193592 27.2464668,63.791938 27.4653465,63.7029703 C28.4554455,63.3168317 29.4455446,62.9108911 30.4356436,62.5643564 C31.8841635,62.0258946 33.293501,61.3873919 34.6534653,60.6534653 L35.1782178,60.4059406 L35.2772277,60.5049505 Z"></path>
            <path d="M32.7227723,3.40594059 C32.2704366,2.31891576 32.2527156,1.09971215 32.6732673,1.33226763e-15 C33.2772277,0.0792079208 33.2673267,0.0792079208 33.3762376,0.683168317 C33.514922,1.36596635 33.514922,2.06967722 33.3762376,2.75247525 C33.2970297,3.30693069 33.3069307,3.31683168 32.7227723,3.40594059 Z"></path>
            <path d="M17.8811881,13.8613861 C17.8811881,14.3564356 17.6831683,14.4851485 17.3465347,14.3168317 C17.009901,14.1485149 16.3564356,13.9108911 16.1980198,13.3267327 C16.1801512,13.2385195 16.1801512,13.1476191 16.1980198,13.0594059 C16.2176176,12.8894782 16.2903856,12.7300816 16.4059406,12.6039604 C16.4752475,12.5445545 16.7128713,12.6039604 16.8316832,12.7326733 C17.1205297,12.9264082 17.3892029,13.148644 17.6336634,13.3960396 C17.7333862,13.5413669 17.8164181,13.6974669 17.8811881,13.8613861 L17.8811881,13.8613861 Z"></path>
            <path d="M22.0594059,3.26732673 C22.7058719,3.57369049 23.1841415,4.14978799 23.3663366,4.84158416 C23.4257426,5.08910891 23.5049505,5.42574257 23.1584158,5.6039604 C22.1287129,4.85148515 21.7227723,3.96039604 22.0594059,3.26732673 Z"></path>
            <path d="M43.5643564,3.13861386 C44.1782178,3.81188119 43.7623762,4.82178218 42.7227723,5.20792079 C42.4391826,4.40456746 42.8005626,3.5159978 43.5643564,3.13861386 L43.5643564,3.13861386 Z"></path>
            <path d="M47.9405941,12.1881188 C47.7029703,11.5544554 47.8118812,11.1980198 48.3168317,11.019802 C48.5859043,10.9299803 48.8603772,10.8572284 49.1386139,10.8019802 C49.4752475,11.3168317 49.4257426,11.6435644 48.950495,11.8613861 C48.6241567,11.9998694 48.2862053,12.1092066 47.9405941,12.1881188 L47.9405941,12.1881188 Z"></path>
        </g>
    </g>
</svg>

<svg viewBox="0 0 60 100" xmlns="http://www.w3.org/2000/svg"><g fill="#00040C" fill-rule="nonzero"><path d="M18.376 96.713l.268.307a.792.792 0 0 1-.941 0c-1.772-.832-3.535-1.673-5.327-2.456-3.861-1.713-7.742-3.386-11.624-5.079L0 89.178l.287-.346c.485-.555.99-1.1 1.465-1.644.307-.337.634-.663.99-.99a6 6 0 0 0 1.486-2.04c.722-1.693 1.475-3.376 2.188-5.069a.683.683 0 0 1 .624-.505 6.713 6.713 0 0 0 1.089-.158 5.782 5.782 0 0 0 3.88-3.06c.318-.594.595-1.208.912-1.871l.643.168a29.594 29.594 0 0 0 5.248 1.327.525.525 0 0 0 .564-.218 3.03 3.03 0 0 1 1.277-.99c.188-.075.364-.175.525-.297.129-.109.287-.307.268-.435a2.317 2.317 0 0 1 .673-1.842c.307-.385.594-.785.861-1.198a.871.871 0 0 1 .673-.406c.545-.08 1.09-.149 1.634-.248.377-.07.745-.179 1.1-.326 1.801-.792 3.603-1.624 5.405-2.426.355-.152.65-.417.842-.753.752-1.247 1.505-2.504 2.326-3.722.674-.99 1.456-1.921 2.159-2.901.584-.822 1.099-1.693 1.683-2.515.584-.822 1.267-1.703 1.901-2.545.178-.227.396-.435.554-.683.345-.525.87-.905 1.476-1.07.534-.167 1.06-.395 1.594-.593.534-.198.416-.119.732.198a1.09 1.09 0 0 1 .12 1.445c-.694 1.307-1.328 2.654-1.931 3.96-.229.581-.417 1.177-.565 1.783-.112.35-.179.712-.198 1.08.084-.078.164-.161.238-.248.475-.644.99-1.288 1.416-1.98.232-.33.43-.681.594-1.05.584-1.307 1.128-2.624 1.713-3.96a.99.99 0 0 0 0-.842 2.277 2.277 0 0 1-.09-1.663c.416-1.08.783-2.179 1.11-3.278a8.327 8.327 0 0 1 1.148-2.05c.525-.84 1.129-1.633 1.624-2.484.73-1.219 1.7-2.277 2.851-3.11l.891.783a9.109 9.109 0 0 0-.683 2.119l.852-1.317c.495-.772.99-1.584 1.504-2.307.472-.472.986-.9 1.535-1.277a.396.396 0 0 1 .357 0c.336.128.663.287 1.059.465-.535 1.287-1.257 2.456-1.832 3.693-.574 1.238-1.178 2.426-1.693 3.763.129-.1.287-.179.406-.288.792-.792 1.604-1.564 2.357-2.386.396-.435.772-.158 1.158-.089.386.07.337.357.376.644.077.47-.03.952-.297 1.346a25.238 25.238 0 0 0-2.881 5.723c-.614 1.762-1.198 3.545-1.98 5.248-.99 2.297-2.188 4.544-3.297 6.811-.693 1.406-1.436 2.802-2.119 4.228a8.812 8.812 0 0 0-.535 1.664 1.475 1.475 0 0 1-.425.742c-.387.376-.753.762-1.149 1.109-.178.156-.387.27-.614.337a23.77 23.77 0 0 1-1.703.425 6.93 6.93 0 0 0-2.128.822c-1.654.99-3.327 1.921-4.951 2.97a15.97 15.97 0 0 0-1.98 1.406 10.891 10.891 0 0 1-2.644 1.555l-.524.257.237.535c-.336.327-.99.08-1.109.693.456.07.683.743 1.367.416.007.092.007.185 0 .277a.99.99 0 0 0 .297 1.149c.237.227.366.465.059.772v-.198c0-.267-.248-.357-.465-.396-.218-.04-.337.198-.386.386a29.98 29.98 0 0 1-1.456 3.772 1.98 1.98 0 0 1-.643.812 6.465 6.465 0 0 0-1.872 2.198 16.248 16.248 0 0 0-1.98 5.228c-.131.77-.214 1.547-.248 2.327.024.605.097 1.208.218 1.802.08.485 0 .722-.495.841s-.99.218-1.544.307c-.16.03-.325.03-.485 0a19.238 19.238 0 0 1-4.268-1.861c-.297-.179-.624-.307-.93-.456l-.07.04zM33.545 50.01c.13.179.246.367.346.564.06.129.366.327 0 .426l.1.356c-.377.288-.377.288 0 .99l-.298.515a2.634 2.634 0 0 1-1.129-1.079 3.743 3.743 0 0 1-.514-1.89c.066-1.961.4-3.903.99-5.773.215-.587.533-1.13.94-1.604.315-.462.54-.98.664-1.525.282-1.4.398-2.83.346-4.257a2.891 2.891 0 0 0-.307-1.436 5.683 5.683 0 0 0-1.98-2.386c-.495-.317-.92-.733-1.416-1.05-.495-.316-.99-.534-1.485-.821a2.446 2.446 0 0 1-.673-.456 4.644 4.644 0 0 0-1.525-1.06l-1.248-.574a3.515 3.515 0 0 1-1.712-1.712c-.317-.644-.664-1.268-.931-1.931a4.08 4.08 0 0 1-.327-1.327c-.08-1.534-.168-3.07-.119-4.604a7.861 7.861 0 0 1 1.683-4.792 5.743 5.743 0 0 1 1.347-1.505c.238-.138.465-.287.693-.435.35-.19.682-.412.99-.664a3.257 3.257 0 0 1 1.218-.663 12.733 12.733 0 0 1 4.158-.703c.911 0 1.832 0 2.743.07.63.03 1.239.232 1.762.583.693.466 1.377.99 2.05 1.466.49.366.863.869 1.07 1.445l.88 2.584c.062.132.115.268.159.406.09.292.136.596.138.901 0 .584-.148 1.159-.208 1.743a7.614 7.614 0 0 1-.752 2.832c-.238.455-.535.87-.812 1.297-.036.043-.07.09-.099.138a3.594 3.594 0 0 1-1.98 1.673c-.08.05-.188.11-.257.09-.357-.1-.585.138-.852.287-.267.148-.515.356-.752 0 0-.05-.169 0-.258 0h-.604a4.535 4.535 0 0 1-3.505-1.386 3.455 3.455 0 0 0-.485-.446 2.584 2.584 0 0 1-.99-1.98 4.683 4.683 0 0 1 1.762-4.327c.278-.232.629-.358.99-.356.44-.009.881.018 1.317.079a.99.99 0 0 1 .802.861 3.06 3.06 0 0 1 0 1.525 1.98 1.98 0 0 1-.257.436 1.881 1.881 0 0 0-1.198-.882c-.307-.069-.654-.267-.93.05-.278.317-.902.683-.753 1.366.02.294.02.588 0 .881a1.08 1.08 0 0 0 1.326.822.396.396 0 0 1 .258 0 1.98 1.98 0 0 0 1.277-.208l1.98-.752a.465.465 0 0 1 .149-.06c.623.05.871-.405 1.079-.851a2.97 2.97 0 0 0 .277-1.099c.04-.64.04-1.281 0-1.92a2.485 2.485 0 0 0-1.98-2.615 4.772 4.772 0 0 0-1.178-.227h-3.248a5.762 5.762 0 0 0-3.812 1.574 2.208 2.208 0 0 0-.87.99.05.05 0 0 1 0 .05 2.881 2.881 0 0 0-.694 2.782c.05.406.149.792.168 1.198.127.966.346 1.917.654 2.841.228.756.62 1.453 1.148 2.04.402.523.895.97 1.456 1.317.828.468 1.632.98 2.406 1.534a8.109 8.109 0 0 1 1.92 1.723c.416.555.901 1.05 1.357 1.584.11.121.2.258.267.406.547 1.117.882 2.326.99 3.565 0 1.425.07 2.861.07 4.287 0 .485-.179.99-.218 1.465a5.287 5.287 0 0 1-.792 2.06 2.842 2.842 0 0 1-.396.455c-.693.832-1.386 1.653-2.06 2.505a.99.99 0 0 0-.168 1.346c.107.211.178.439.208.674.109.346.04.435-.366.574z"/><path d="M35.277 60.505c-1.089 1.614-2.168 3.218-3.277 4.812a1.218 1.218 0 0 1-.535.435c-.91.416-1.851.783-2.762 1.218a15.91 15.91 0 0 0-2.04 1.159c-.57.4-1.223.668-1.91.782-.575.07-1.14.218-1.793.346.08-.198.12-.326.179-.455.336-.663.673-1.337.99-1.98.092-.177.213-.337.356-.475.792-.763 1.584-1.525 2.386-2.268a1.98 1.98 0 0 1 .594-.376c.99-.386 1.98-.792 2.97-1.139a33.347 33.347 0 0 0 4.218-1.91l.525-.248.1.099zM32.723 3.406A4.594 4.594 0 0 1 32.673 0c.604.08.594.08.703.683a5.198 5.198 0 0 1 0 2.07c-.079.554-.07.564-.653.653zM17.881 13.861c0 .495-.198.624-.534.456-.337-.168-.99-.406-1.149-.99a.673.673 0 0 1 0-.268c.02-.17.092-.329.208-.455.07-.06.307 0 .426.129.289.193.557.416.802.663.1.145.182.301.247.465zM22.06 3.267a2.426 2.426 0 0 1 1.306 1.575c.06.247.139.584-.208.762-1.03-.753-1.435-1.644-1.099-2.337zM43.564 3.139c.614.673.198 1.683-.841 2.069a1.683 1.683 0 0 1 .841-2.07zM47.94 12.188c-.237-.634-.128-.99.377-1.168.269-.09.543-.163.822-.218.336.515.287.842-.189 1.06a6.01 6.01 0 0 1-1.01.326z"/></g></svg>
